X:30
T:White Cochead. LIT.030, The
M:2/4
Q:1/4=100
L:1/8
B:Wm. Litten MS, 1802
Z:Village Music Project 2017 Anne Wride
K:G
G/A/ | BB BA/G/ | BB Bg/e/ | dB BA/G/ | FA AG/A/ |
BB BA/G/ | gg gf/g/ | a/g/g/f/ a/g/f/e/ | dB B :|
|: B/c/ | dB gB | dB BB/c/ | dB gB | aA AG/A/ |
BB BA/G/ | AB gf/g/ | a/g/g/f/a/g/f/e/ | dB B :|

